X: 501
%
U:~=!turn!
T: Mrs. Wright
C:
O:Scotland
B:Keith Norman MacDonald : "The Skye collection of the best reels & strathspeys extant" : 1887
Z:Ralph Palmer
R:Strathspey
M:C
L:1/8
K:E aeolian
e | B<ET(B>A) B<ETB<e | {/^c}d<D T(B/A/)(G/F/) {/c}d<D T(B/A/)(G/F/) | B<ET(B>A) B<EB>e |
{/^c}d<B{/c}d>F E/E/E TE :: B | e>B(e>g) B>e{/f}g>e | {/^c}d>f(B>d) {/G}F>DA>F |
[1 e<Be>{/f}g B>e{/f}g>e | {/^c}d<Bd>F E/E/E ~E :| [2 {/F}G<BE>B e<B{/f}g>e | {/^c}d<B{/c}d>F E/E/E TE |]


